dist/svg/u264E.svg

<?xml version="1.0" encoding="UTF-8"?><svg id="a" xmlns="http://www.w3.org/2000/svg" viewBox="0 0 40 40"><g><rect x="3.5" y="3.5" width="33" height="33" rx="8" ry="8" fill="#786de7"/><path d="M29.297,22.894v2.466c0,.228-.185,.413-.413,.413h-6.894c-.228,0-.412-.185-.412-.413v-2.721c0-.169,.107-.314,.263-.378,.842-.341,1.544-.9,2.107-1.675,.621-.855,.931-1.803,.931-2.845,0-1.339-.478-2.486-1.433-3.441-.956-.955-2.103-1.433-3.441-1.433s-2.486,.478-3.441,1.433-1.433,2.101-1.434,3.439c0,1.056,.352,2.099,.989,2.941,.553,.731,1.232,1.259,2.038,1.582,.157,.063,.264,.208,.264,.377v2.721c0,.228-.185,.413-.413,.413h-6.894c-.228,0-.412-.185-.412-.413v-2.466c0-.228,.185-.412,.412-.412h2.242c-.483-.684-.855-1.426-1.116-2.225-.326-1.001-.448-2.063-.365-3.187,.069-.946,.315-1.881,.72-2.738,.737-1.56,1.839-2.772,3.304-3.634,1.257-.74,2.625-1.11,4.105-1.11,2.231,0,4.15,.803,5.756,2.41,1.606,1.606,2.409,3.521,2.409,5.745,0,.878-.134,1.716-.401,2.515-.268,.8-.643,1.541-1.127,2.225h2.242c.228,0,.413,.185,.413,.412Zm0,4.651v2.455c0,.228-.185,.413-.413,.413H11.115c-.228,0-.412-.185-.412-.413v-2.455c0-.228,.185-.412,.412-.412H28.885c.228,0,.413,.185,.413,.412Z" fill="#fff"/></g><rect width="40" height="40" fill="none"/></svg>

<svg id="Layer_1" data-name="Layer 1" xmlns="http://www.w3.org/2000/svg" viewBox="0 0 40 40"><defs><style>.cls-1{fill:#786de7;}.cls-2{fill:#fff;}.cls-3{fill:none;}</style></defs><rect class="cls-1" x="3.5" y="3.5" width="33" height="33" rx="8"/><path class="cls-2" d="M29.3,22.894V25.36a.412.412,0,0,1-.412.413H21.991a.413.413,0,0,1-.413-.413V22.639a.411.411,0,0,1,.264-.378,4.805,4.805,0,0,0,2.107-1.675,4.832,4.832,0,0,0-.5-6.286,4.849,4.849,0,0,0-6.883,0,4.69,4.69,0,0,0-1.433,3.439,4.9,4.9,0,0,0,.989,2.941,4.73,4.73,0,0,0,2.038,1.582.41.41,0,0,1,.264.377V25.36a.413.413,0,0,1-.413.413H11.115a.412.412,0,0,1-.412-.413V22.894a.412.412,0,0,1,.412-.412h2.242a8.177,8.177,0,0,1-1.481-5.412,7.758,7.758,0,0,1,.721-2.739A8.169,8.169,0,0,1,15.9,10.7a7.944,7.944,0,0,1,4.105-1.11A7.853,7.853,0,0,1,25.761,12a8.057,8.057,0,0,1,2.008,8.26,8.518,8.518,0,0,1-1.126,2.225h2.242A.412.412,0,0,1,29.3,22.894Zm0,4.652V30a.412.412,0,0,1-.412.413H11.115A.412.412,0,0,1,10.7,30V27.546a.412.412,0,0,1,.412-.413h17.77A.412.412,0,0,1,29.3,27.546Z"/><rect class="cls-3" width="40" height="40"/></svg>
